app/assets/img/work/ttl-gimbap-pc.svg

<svg fill="none" height="31" viewBox="0 0 193 31" width="193" xmlns="http://www.w3.org/2000/svg"><path d="m12.896 21.096c.7467 0 1.408-.064 1.984-.192s1.12-.2987 1.632-.512v-3.536h-2.304c-.3413 0-.608-.0907-.8-.272s-.288-.4107-.288-.688v-2.976h8.288v9.84c-.5973.4373-1.2213.816-1.872 1.136-.64.3093-1.328.5653-2.064.768-.7253.2027-1.504.352-2.336.448-.8213.096-1.7067.144-2.656.144-1.7067 0-3.28533-.2987-4.736-.896-1.45067-.608-2.70933-1.44-3.776-2.496-1.056-1.0667-1.888-2.3253-2.496-3.776-.597333-1.4613-.896-3.0453-.896-4.752 0-1.7387.288-3.3333.864-4.784.576-1.46133 1.39733-2.72 2.464-3.776 1.07733-1.056 2.37333-1.87733 3.888-2.464 1.52533-.58667 3.2267-.88 5.104-.88.9707 0 1.8827.08 2.736.24s1.6373.37867 2.352.656c.7253.27733 1.3867.608 1.984.992s1.1307.8 1.6 1.248l-1.568 2.384c-.1493.224-.3307.4-.544.528-.2027.128-.4267.192-.672.192-.32 0-.6507-.10667-.992-.32-.4267-.256-.832-.47467-1.216-.656-.3733-.192-.7573-.34667-1.152-.464s-.8107-.20267-1.248-.256-.928-.08-1.472-.08c-1.0133 0-1.9253.18133-2.736.544-.81067.352-1.504.85333-2.08 1.504-.56533.65067-1.00267 1.43467-1.312 2.352-.30933.9067-.464 1.92-.464 3.04 0 1.2373.17067 2.336.512 3.296s.81067 1.7707 1.408 2.432c.608.6613 1.32267 1.168 2.144 1.52.832.3413 1.7387.512 2.72.512zm17.2453-12.688v16.592h-4.9601v-16.592zm.5759-4.544c0 .39467-.08.768-.2399 1.12-.1601.34133-.3787.64533-.6561.912-.2773.256-.6026.464-.9759.624-.3627.14933-.7521.224-1.1681.224-.4053 0-.784-.07467-1.136-.224-.352-.16-.6666-.368-.944-.624-.2666-.26667-.48-.57067-.64-.912-.1493-.352-.224-.72533-.224-1.12 0-.40533.0747-.784.224-1.136.16-.352.3734-.66133.64-.928.2774-.26667.592-.47467.944-.624s.7307-.224 1.136-.224c.416 0 .8054.07467 1.1681.224.3733.14933.6986.35733.9759.624.2774.26667.496.576.6561.928.1599.352.2399.73067.2399 1.136zm3.749 21.136v-16.592h3.072c.3094 0 .5654.06933.768.208.2134.13867.3627.34667.448.624l.272.896c.2774-.288.5654-.54933.864-.784.2987-.24533.6187-.45333.9601-.624.352-.18133.7253-.32 1.12-.416.4053-.10667.848-.16 1.328-.16 1.0026 0 1.8293.26133 2.4799.784.6614.512 1.1627 1.2 1.5041 2.064.2773-.512.6133-.9493 1.0079-1.312.4054-.36267.8374-.656 1.2961-.88.4693-.224.96-.38933 1.472-.496.5226-.10667 1.04-.16 1.552-.16.9493 0 1.792.144 2.528.432.736.27733 1.3493.688 1.84 1.232.5013.5333.88 1.1947 1.136 1.984.256.7787.384 1.664.384 2.656v10.544h-4.9601v-10.544c0-1.7173-.736-2.576-2.208-2.576-.6719 0-1.2319.224-1.68.672-.4373.4373-.656 1.072-.656 1.904v10.544h-4.9599v-10.544c0-.9493-.1867-1.616-.5601-2-.3733-.384-.9226-.576-1.6479-.576-.448 0-.8747.1013-1.2801.304-.3946.2027-.768.4747-1.12.816v12zm27.8825 0v-23.952h4.96v9.12c.6187-.608 1.3174-1.09333 2.096-1.456.7894-.37333 1.712-.56 2.768-.56.864 0 1.6641.18667 2.4001.56s1.3706.92267 1.9039 1.648c.5334.7147.9494 1.5947 1.2481 2.64.3093 1.0453.4639 2.2347.4639 3.568 0 1.248-.176 2.4-.528 3.456-.3413 1.056-.8266 1.9733-1.4559 2.752-.6187.7787-1.3654 1.3867-2.2401 1.824-.864.4373-1.824.656-2.88.656-.4906 0-.9333-.048-1.328-.144-.384-.096-.7413-.2293-1.072-.4-.32-.1813-.6186-.3947-.896-.64-.2666-.2453-.528-.512-.784-.8l-.176.832c-.0746.3413-.2133.576-.416.704-.192.128-.448.192-.768.192zm8.096-13.12c-.3626 0-.6933.0373-.992.112-.288.064-.56.16-.816.288-.2453.128-.4746.2933-.688.496-.2133.192-.4266.416-.64.672v7.04c.3734.416.7787.7093 1.216.88.4374.16.896.24 1.376.24.4587 0 .88-.0907 1.264-.272s.7147-.4693.992-.864c.288-.4053.512-.928.672-1.568s.24-1.4187.24-2.336c0-.8747-.064-1.6107-.192-2.208s-.3093-1.0773-.544-1.44c-.224-.3733-.496-.64-.816-.8s-.6773-.24-1.072-.24zm22.2425 13.12c-.4693 0-.8266-.064-1.072-.192-.2346-.128-.432-.3947-.592-.8l-.352-.912c-.416.352-.816.6613-1.2.928s-.784.496-1.2.688c-.4053.1813-.8426.3147-1.312.4-.4586.096-.9706.144-1.536.144-.7573 0-1.4453-.096-2.064-.288-.6186-.2027-1.1466-.496-1.584-.88-.4266-.384-.7573-.8587-.992-1.424-.2346-.576-.352-1.2373-.352-1.984 0-.5867.1494-1.1893.448-1.808.2987-.6187.816-1.1787 1.552-1.68.736-.512 1.728-.9387 2.976-1.28s2.8214-.5333 4.72-.576v-.704c0-.9707-.2026-1.6693-.608-2.096-.3946-.4373-.96-.656-1.696-.656-.5866 0-1.0666.064-1.44.192-.3733.128-.7093.272-1.008.432-.288.16-.5706.304-.848.432-.2773.128-.608.192-.992.192-.3413 0-.6346-.08-.88-.24-.2346-.1707-.4213-.3787-.56-.624l-.896-1.552c1.0027-.88533 2.112-1.54133 3.328-1.968 1.2267-.43733 2.5387-.656 3.936-.656 1.0027 0 1.904.16533 2.704.496.8107.32 1.4934.77333 2.048 1.36.5654.576.9974 1.264 1.296 2.064.2987.8.448 1.6747.448 2.624v10.368zm-5.696-3.024c.64 0 1.2-.112 1.68-.336s.9654-.5867 1.456-1.088v-2.304c-.992.0427-1.808.128-2.448.256s-1.1466.288-1.52.48c-.3733.192-.6346.4107-.784.656-.1386.2453-.208.512-.208.8 0 .5653.1547.9653.464 1.2.3094.224.7627.336 1.36.336zm11.81 8.288v-21.856h3.0718c.31 0 .566.06933.768.208.214.13867.363.34667.448.624l.368 1.216c.32-.352.662-.672 1.024-.96.374-.288.768-.53333 1.184-.736.427-.21333.88-.37867 1.36-.496.491-.11733 1.024-.176 1.6-.176.864 0 1.664.192 2.4.576s1.371.93867 1.904 1.664c.534.7253.95 1.616 1.248 2.672.31 1.0453.464 2.2347.464 3.568 0 1.248-.176 2.4-.528 3.456-.341 1.056-.826 1.9733-1.456 2.752-.618.7787-1.365 1.3867-2.24 1.824-.864.4373-1.824.656-2.88.656-.864 0-1.589-.1227-2.176-.368-.586-.2453-1.12-.576-1.6-.992v6.368zm8.0958-18.384c-.362 0-.693.0373-.992.112-.288.064-.56.16-.816.288-.245.128-.474.2933-.688.496-.213.192-.426.416-.64.672v7.04c.374.416.779.7093 1.216.88.438.16.896.24 1.376.24.459 0 .88-.0907 1.264-.272s.715-.4693.992-.864c.288-.4053.512-.928.672-1.568s.24-1.4187.24-2.336c0-.8747-.064-1.6107-.192-2.208s-.309-1.0773-.544-1.44c-.224-.3733-.496-.64-.816-.8s-.677-.24-1.072-.24zm32.896 7.088c.128 0 .256.0267.384.08.128.0427.25.1227.368.24l2.144 2.256c-.939 1.2267-2.118 2.1547-3.536 2.784-1.408.6187-3.078.928-5.008.928-1.771 0-3.36-.2987-4.768-.896-1.398-.608-2.587-1.44-3.568-2.496-.971-1.0667-1.718-2.3253-2.24-3.776-.523-1.4613-.784-3.0453-.784-4.752 0-1.7387.298-3.3333.896-4.784.597-1.46133 1.429-2.72 2.496-3.776 1.077-1.056 2.362-1.87733 3.856-2.464 1.493-.58667 3.141-.88 4.944-.88.874 0 1.696.08 2.464.24.778.14933 1.504.36266 2.176.64.672.26667 1.29.592 1.856.976.565.37333 1.066.78933 1.504 1.248l-1.824 2.448c-.118.14933-.256.288-.416.416-.16.11733-.384.176-.672.176-.192 0-.374-.04267-.544-.128-.171-.08533-.352-.18667-.544-.304-.192-.128-.406-.26133-.64-.4-.224-.14933-.496-.28267-.816-.4-.31-.128-.678-.23467-1.104-.32-.416-.08533-.907-.128-1.472-.128-.982 0-1.878.176-2.688.528-.811.34133-1.51.83733-2.096 1.488-.576.64-1.03 1.41867-1.36 2.336-.32.9173-.48 1.9467-.48 3.088 0 1.1947.16 2.256.48 3.184.33.928.773 1.712 1.328 2.352.565.6293 1.221 1.1093 1.968 1.44.746.3307 1.546.496 2.4.496.49 0 .938-.0213 1.344-.064.405-.0533.778-.1387 1.12-.256.352-.1173.682-.2667.992-.448.32-.192.64-.4267.96-.704.128-.1067.266-.192.416-.256.149-.0747.304-.112.464-.112zm5.687 6.032v-23.952h4.96v8.816c.597-.512 1.243-.92267 1.936-1.232.704-.32 1.541-.48 2.512-.48.907 0 1.707.16 2.4.48.704.30933 1.296.74667 1.776 1.312.48.5547.843 1.2213 1.088 2 .245.768.368 1.6053.368 2.512v10.544h-4.96v-10.544c0-.8107-.187-1.44-.56-1.888-.373-.4587-.923-.688-1.648-.688-.544 0-1.056.1173-1.536.352s-.939.5493-1.376.944v11.824zm30.339 0c-.47 0-.827-.064-1.072-.192-.235-.128-.432-.3947-.592-.8l-.352-.912c-.416.352-.816.6613-1.2.928s-.784.496-1.2.688c-.406.1813-.843.3147-1.312.4-.459.096-.971.144-1.536.144-.758 0-1.446-.096-2.064-.288-.619-.2027-1.147-.496-1.584-.88-.427-.384-.758-.8587-.992-1.424-.235-.576-.352-1.2373-.352-1.984 0-.5867.149-1.1893.448-1.808.298-.6187.816-1.1787 1.552-1.68.736-.512 1.728-.9387 2.976-1.28s2.821-.5333 4.72-.576v-.704c0-.9707-.203-1.6693-.608-2.096-.395-.4373-.96-.656-1.696-.656-.587 0-1.067.064-1.44.192-.374.128-.71.272-1.008.432-.288.16-.571.304-.848.432-.278.128-.608.192-.992.192-.342 0-.635-.08-.88-.24-.235-.1707-.422-.3787-.56-.624l-.896-1.552c1.002-.88533 2.112-1.54133 3.328-1.968 1.226-.43733 2.538-.656 3.936-.656 1.002 0 1.904.16533 2.704.496.81.32 1.493.77333 2.048 1.36.565.576.997 1.264 1.296 2.064.298.8.448 1.6747.448 2.624v10.368zm-5.696-3.024c.64 0 1.2-.112 1.68-.336s.965-.5867 1.456-1.088v-2.304c-.992.0427-1.808.128-2.448.256s-1.147.288-1.52.48c-.374.192-.635.4107-.784.656-.139.2453-.208.512-.208.8 0 .5653.154.9653.464 1.2.309.224.762.336 1.36.336zm17.633 3.28c-.789 0-1.488-.112-2.096-.336-.597-.2347-1.104-.56-1.52-.976-.405-.4267-.714-.9387-.928-1.536-.213-.5973-.32-1.264-.32-2v-8.576h-1.408c-.256 0-.474-.08-.656-.24-.181-.1707-.272-.416-.272-.736v-1.936l2.64-.512.976-4.048c.128-.512.491-.768 1.088-.768h2.592v4.848h4.032v3.392h-4.032v8.24c0 .384.091.704.272.96.192.2453.464.368.816.368.182 0 .331-.016.448-.048.128-.0427.235-.0853.32-.128.096-.0533.182-.096.256-.128.086-.0427.182-.064.288-.064.15 0 .267.0373.352.112.096.064.192.1707.288.32l1.504 2.352c-.64.48-1.36.8427-2.16 1.088-.8.2347-1.626.352-2.48.352z" fill="#121111"/></svg>

<svg width="193" height="31" viewBox="0 0 193 31" fill="none" xmlns="http://www.w3.org/2000/svg">
<path d="M12.896 21.096C13.6427 21.096 14.304 21.032 14.88 20.904C15.456 20.776 16 20.6053 16.512 20.392V16.856H14.208C13.8667 16.856 13.6 16.7653 13.408 16.584C13.216 16.4027 13.12 16.1733 13.12 15.896V12.92H21.408V22.76C20.8107 23.1973 20.1867 23.576 19.536 23.896C18.896 24.2053 18.208 24.4613 17.472 24.664C16.7467 24.8667 15.968 25.016 15.136 25.112C14.3147 25.208 13.4293 25.256 12.48 25.256C10.7733 25.256 9.19467 24.9573 7.744 24.36C6.29333 23.752 5.03467 22.92 3.968 21.864C2.912 20.7973 2.08 19.5387 1.472 18.088C0.874667 16.6267 0.576 15.0427 0.576 13.336C0.576 11.5973 0.864 10.0027 1.44 8.552C2.016 7.09067 2.83733 5.832 3.904 4.776C4.98133 3.72 6.27733 2.89867 7.792 2.312C9.31733 1.72533 11.0187 1.432 12.896 1.432C13.8667 1.432 14.7787 1.512 15.632 1.672C16.4853 1.832 17.2693 2.05067 17.984 2.328C18.7093 2.60533 19.3707 2.936 19.968 3.32C20.5653 3.704 21.0987 4.12 21.568 4.568L20 6.952C19.8507 7.176 19.6693 7.352 19.456 7.48C19.2533 7.608 19.0293 7.672 18.784 7.672C18.464 7.672 18.1333 7.56533 17.792 7.352C17.3653 7.096 16.96 6.87733 16.576 6.696C16.2027 6.504 15.8187 6.34933 15.424 6.232C15.0293 6.11467 14.6133 6.02933 14.176 5.976C13.7387 5.92267 13.248 5.896 12.704 5.896C11.6907 5.896 10.7787 6.07733 9.968 6.44C9.15733 6.792 8.464 7.29333 7.888 7.944C7.32267 8.59467 6.88533 9.37867 6.576 10.296C6.26667 11.2027 6.112 12.216 6.112 13.336C6.112 14.5733 6.28267 15.672 6.624 16.632C6.96533 17.592 7.43467 18.4027 8.032 19.064C8.64 19.7253 9.35467 20.232 10.176 20.584C11.008 20.9253 11.9147 21.096 12.896 21.096ZM30.1413 8.408V25H25.1812V8.408H30.1413ZM30.7172 3.864C30.7172 4.25867 30.6372 4.632 30.4773 4.984C30.3172 5.32533 30.0986 5.62933 29.8212 5.896C29.5439 6.152 29.2186 6.36 28.8453 6.52C28.4826 6.66933 28.0932 6.744 27.6772 6.744C27.2719 6.744 26.8932 6.66933 26.5412 6.52C26.1892 6.36 25.8746 6.152 25.5972 5.896C25.3306 5.62933 25.1172 5.32533 24.9572 4.984C24.8079 4.632 24.7332 4.25867 24.7332 3.864C24.7332 3.45867 24.8079 3.08 24.9572 2.728C25.1172 2.376 25.3306 2.06667 25.5972 1.8C25.8746 1.53333 26.1892 1.32533 26.5412 1.176C26.8932 1.02667 27.2719 0.952 27.6772 0.952C28.0932 0.952 28.4826 1.02667 28.8453 1.176C29.2186 1.32533 29.5439 1.53333 29.8212 1.8C30.0986 2.06667 30.3172 2.376 30.4773 2.728C30.6372 3.08 30.7172 3.45867 30.7172 3.864ZM34.4662 25V8.408H37.5382C37.8476 8.408 38.1036 8.47733 38.3062 8.616C38.5196 8.75467 38.6689 8.96267 38.7542 9.24L39.0262 10.136C39.3036 9.848 39.5916 9.58667 39.8902 9.352C40.1889 9.10667 40.5089 8.89867 40.8503 8.728C41.2023 8.54667 41.5756 8.408 41.9703 8.312C42.3756 8.20533 42.8183 8.152 43.2983 8.152C44.3009 8.152 45.1276 8.41333 45.7782 8.936C46.4396 9.448 46.9409 10.136 47.2823 11C47.5596 10.488 47.8956 10.0507 48.2902 9.688C48.6956 9.32533 49.1276 9.032 49.5863 8.808C50.0556 8.584 50.5463 8.41867 51.0583 8.312C51.5809 8.20533 52.0983 8.152 52.6103 8.152C53.5596 8.152 54.4023 8.296 55.1383 8.584C55.8743 8.86133 56.4876 9.272 56.9783 9.816C57.4796 10.3493 57.8583 11.0107 58.1143 11.8C58.3703 12.5787 58.4983 13.464 58.4983 14.456V25H53.5382V14.456C53.5382 12.7387 52.8022 11.88 51.3302 11.88C50.6583 11.88 50.0983 12.104 49.6502 12.552C49.2129 12.9893 48.9942 13.624 48.9942 14.456V25H44.0343V14.456C44.0343 13.5067 43.8476 12.84 43.4742 12.456C43.1009 12.072 42.5516 11.88 41.8263 11.88C41.3783 11.88 40.9516 11.9813 40.5462 12.184C40.1516 12.3867 39.7782 12.6587 39.4262 13V25H34.4662ZM62.3487 25V1.048H67.3087V10.168C67.9274 9.56 68.6261 9.07467 69.4047 8.712C70.1941 8.33867 71.1167 8.152 72.1727 8.152C73.0367 8.152 73.8368 8.33867 74.5728 8.712C75.3088 9.08533 75.9434 9.63467 76.4767 10.36C77.0101 11.0747 77.4261 11.9547 77.7248 13C78.0341 14.0453 78.1887 15.2347 78.1887 16.568C78.1887 17.816 78.0127 18.968 77.6607 20.024C77.3194 21.08 76.8341 21.9973 76.2048 22.776C75.5861 23.5547 74.8394 24.1627 73.9647 24.6C73.1007 25.0373 72.1407 25.256 71.0847 25.256C70.5941 25.256 70.1514 25.208 69.7567 25.112C69.3727 25.016 69.0154 24.8827 68.6847 24.712C68.3647 24.5307 68.0661 24.3173 67.7887 24.072C67.5221 23.8267 67.2607 23.56 67.0047 23.272L66.8287 24.104C66.7541 24.4453 66.6154 24.68 66.4127 24.808C66.2207 24.936 65.9647 25 65.6447 25H62.3487ZM70.4447 11.88C70.0821 11.88 69.7514 11.9173 69.4527 11.992C69.1647 12.056 68.8927 12.152 68.6367 12.28C68.3914 12.408 68.1621 12.5733 67.9487 12.776C67.7354 12.968 67.5221 13.192 67.3087 13.448V20.488C67.6821 20.904 68.0874 21.1973 68.5247 21.368C68.9621 21.528 69.4207 21.608 69.9007 21.608C70.3594 21.608 70.7807 21.5173 71.1647 21.336C71.5487 21.1547 71.8794 20.8667 72.1567 20.472C72.4447 20.0667 72.6687 19.544 72.8287 18.904C72.9887 18.264 73.0687 17.4853 73.0687 16.568C73.0687 15.6933 73.0047 14.9573 72.8767 14.36C72.7487 13.7627 72.5674 13.2827 72.3327 12.92C72.1087 12.5467 71.8367 12.28 71.5167 12.12C71.1967 11.96 70.8394 11.88 70.4447 11.88ZM92.6872 25C92.2179 25 91.8606 24.936 91.6152 24.808C91.3806 24.68 91.1832 24.4133 91.0232 24.008L90.6712 23.096C90.2552 23.448 89.8552 23.7573 89.4712 24.024C89.0872 24.2907 88.6872 24.52 88.2712 24.712C87.8659 24.8933 87.4286 25.0267 86.9592 25.112C86.5006 25.208 85.9886 25.256 85.4232 25.256C84.6659 25.256 83.9779 25.16 83.3592 24.968C82.7406 24.7653 82.2126 24.472 81.7752 24.088C81.3486 23.704 81.0179 23.2293 80.7832 22.664C80.5486 22.088 80.4312 21.4267 80.4312 20.68C80.4312 20.0933 80.5806 19.4907 80.8792 18.872C81.1779 18.2533 81.6952 17.6933 82.4312 17.192C83.1672 16.68 84.1592 16.2533 85.4072 15.912C86.6552 15.5707 88.2286 15.3787 90.1272 15.336V14.632C90.1272 13.6613 89.9246 12.9627 89.5192 12.536C89.1246 12.0987 88.5592 11.88 87.8232 11.88C87.2366 11.88 86.7566 11.944 86.3832 12.072C86.0099 12.2 85.6739 12.344 85.3752 12.504C85.0872 12.664 84.8046 12.808 84.5272 12.936C84.2499 13.064 83.9192 13.128 83.5352 13.128C83.1939 13.128 82.9006 13.048 82.6552 12.888C82.4206 12.7173 82.2339 12.5093 82.0952 12.264L81.1992 10.712C82.2019 9.82667 83.3112 9.17067 84.5272 8.744C85.7539 8.30667 87.0659 8.088 88.4632 8.088C89.4659 8.088 90.3672 8.25333 91.1672 8.584C91.9779 8.904 92.6606 9.35733 93.2152 9.944C93.7806 10.52 94.2126 11.208 94.5112 12.008C94.8099 12.808 94.9592 13.6827 94.9592 14.632V25H92.6872ZM86.9912 21.976C87.6312 21.976 88.1912 21.864 88.6712 21.64C89.1512 21.416 89.6366 21.0533 90.1272 20.552V18.248C89.1352 18.2907 88.3192 18.376 87.6792 18.504C87.0392 18.632 86.5326 18.792 86.1592 18.984C85.7859 19.176 85.5246 19.3947 85.3752 19.64C85.2366 19.8853 85.1672 20.152 85.1672 20.44C85.1672 21.0053 85.3219 21.4053 85.6312 21.64C85.9406 21.864 86.3939 21.976 86.9912 21.976ZM98.8012 30.264V8.408H101.873C102.183 8.408 102.439 8.47733 102.641 8.616C102.855 8.75467 103.004 8.96267 103.089 9.24L103.457 10.456C103.777 10.104 104.119 9.784 104.481 9.496C104.855 9.208 105.249 8.96267 105.665 8.76C106.092 8.54667 106.545 8.38133 107.025 8.264C107.516 8.14667 108.049 8.088 108.625 8.088C109.489 8.088 110.289 8.28 111.025 8.664C111.761 9.048 112.396 9.60267 112.929 10.328C113.463 11.0533 113.879 11.944 114.177 13C114.487 14.0453 114.641 15.2347 114.641 16.568C114.641 17.816 114.465 18.968 114.113 20.024C113.772 21.08 113.287 21.9973 112.657 22.776C112.039 23.5547 111.292 24.1627 110.417 24.6C109.553 25.0373 108.593 25.256 107.537 25.256C106.673 25.256 105.948 25.1333 105.361 24.888C104.775 24.6427 104.241 24.312 103.761 23.896V30.264H98.8012ZM106.897 11.88C106.535 11.88 106.204 11.9173 105.905 11.992C105.617 12.056 105.345 12.152 105.089 12.28C104.844 12.408 104.615 12.5733 104.401 12.776C104.188 12.968 103.975 13.192 103.761 13.448V20.488C104.135 20.904 104.54 21.1973 104.977 21.368C105.415 21.528 105.873 21.608 106.353 21.608C106.812 21.608 107.233 21.5173 107.617 21.336C108.001 21.1547 108.332 20.8667 108.609 20.472C108.897 20.0667 109.121 19.544 109.281 18.904C109.441 18.264 109.521 17.4853 109.521 16.568C109.521 15.6933 109.457 14.9573 109.329 14.36C109.201 13.7627 109.02 13.2827 108.785 12.92C108.561 12.5467 108.289 12.28 107.969 12.12C107.649 11.96 107.292 11.88 106.897 11.88ZM139.793 18.968C139.921 18.968 140.049 18.9947 140.177 19.048C140.305 19.0907 140.427 19.1707 140.545 19.288L142.689 21.544C141.75 22.7707 140.571 23.6987 139.153 24.328C137.745 24.9467 136.075 25.256 134.145 25.256C132.374 25.256 130.785 24.9573 129.377 24.36C127.979 23.752 126.79 22.92 125.809 21.864C124.838 20.7973 124.091 19.5387 123.569 18.088C123.046 16.6267 122.785 15.0427 122.785 13.336C122.785 11.5973 123.083 10.0027 123.681 8.552C124.278 7.09067 125.11 5.832 126.177 4.776C127.254 3.72 128.539 2.89867 130.033 2.312C131.526 1.72533 133.174 1.432 134.977 1.432C135.851 1.432 136.673 1.512 137.441 1.672C138.219 1.82133 138.945 2.03466 139.617 2.312C140.289 2.57867 140.907 2.904 141.473 3.288C142.038 3.66133 142.539 4.07733 142.977 4.536L141.153 6.984C141.035 7.13333 140.897 7.272 140.737 7.4C140.577 7.51733 140.353 7.576 140.065 7.576C139.873 7.576 139.691 7.53333 139.521 7.448C139.35 7.36267 139.169 7.26133 138.977 7.144C138.785 7.016 138.571 6.88267 138.337 6.744C138.113 6.59467 137.841 6.46133 137.521 6.344C137.211 6.216 136.843 6.10933 136.417 6.024C136.001 5.93867 135.51 5.896 134.945 5.896C133.963 5.896 133.067 6.072 132.257 6.424C131.446 6.76533 130.747 7.26133 130.161 7.912C129.585 8.552 129.131 9.33067 128.801 10.248C128.481 11.1653 128.321 12.1947 128.321 13.336C128.321 14.5307 128.481 15.592 128.801 16.52C129.131 17.448 129.574 18.232 130.129 18.872C130.694 19.5013 131.35 19.9813 132.097 20.312C132.843 20.6427 133.643 20.808 134.497 20.808C134.987 20.808 135.435 20.7867 135.841 20.744C136.246 20.6907 136.619 20.6053 136.961 20.488C137.313 20.3707 137.643 20.2213 137.953 20.04C138.273 19.848 138.593 19.6133 138.913 19.336C139.041 19.2293 139.179 19.144 139.329 19.08C139.478 19.0053 139.633 18.968 139.793 18.968ZM145.48 25V1.048H150.44V9.864C151.037 9.352 151.683 8.94133 152.376 8.632C153.08 8.312 153.917 8.152 154.888 8.152C155.795 8.152 156.595 8.312 157.288 8.632C157.992 8.94133 158.584 9.37867 159.064 9.944C159.544 10.4987 159.907 11.1653 160.152 11.944C160.397 12.712 160.52 13.5493 160.52 14.456V25H155.56V14.456C155.56 13.6453 155.373 13.016 155 12.568C154.627 12.1093 154.077 11.88 153.352 11.88C152.808 11.88 152.296 11.9973 151.816 12.232C151.336 12.4667 150.877 12.7813 150.44 13.176V25H145.48ZM175.819 25C175.349 25 174.992 24.936 174.747 24.808C174.512 24.68 174.315 24.4133 174.155 24.008L173.803 23.096C173.387 23.448 172.987 23.7573 172.603 24.024C172.219 24.2907 171.819 24.52 171.403 24.712C170.997 24.8933 170.56 25.0267 170.091 25.112C169.632 25.208 169.12 25.256 168.555 25.256C167.797 25.256 167.109 25.16 166.491 24.968C165.872 24.7653 165.344 24.472 164.907 24.088C164.48 23.704 164.149 23.2293 163.915 22.664C163.68 22.088 163.563 21.4267 163.563 20.68C163.563 20.0933 163.712 19.4907 164.011 18.872C164.309 18.2533 164.827 17.6933 165.563 17.192C166.299 16.68 167.291 16.2533 168.539 15.912C169.787 15.5707 171.36 15.3787 173.259 15.336V14.632C173.259 13.6613 173.056 12.9627 172.651 12.536C172.256 12.0987 171.691 11.88 170.955 11.88C170.368 11.88 169.888 11.944 169.515 12.072C169.141 12.2 168.805 12.344 168.507 12.504C168.219 12.664 167.936 12.808 167.659 12.936C167.381 13.064 167.051 13.128 166.667 13.128C166.325 13.128 166.032 13.048 165.787 12.888C165.552 12.7173 165.365 12.5093 165.227 12.264L164.331 10.712C165.333 9.82667 166.443 9.17067 167.659 8.744C168.885 8.30667 170.197 8.088 171.595 8.088C172.597 8.088 173.499 8.25333 174.299 8.584C175.109 8.904 175.792 9.35733 176.347 9.944C176.912 10.52 177.344 11.208 177.643 12.008C177.941 12.808 178.091 13.6827 178.091 14.632V25H175.819ZM170.123 21.976C170.763 21.976 171.323 21.864 171.803 21.64C172.283 21.416 172.768 21.0533 173.259 20.552V18.248C172.267 18.2907 171.451 18.376 170.811 18.504C170.171 18.632 169.664 18.792 169.291 18.984C168.917 19.176 168.656 19.3947 168.507 19.64C168.368 19.8853 168.299 20.152 168.299 20.44C168.299 21.0053 168.453 21.4053 168.763 21.64C169.072 21.864 169.525 21.976 170.123 21.976ZM187.756 25.256C186.967 25.256 186.268 25.144 185.66 24.92C185.063 24.6853 184.556 24.36 184.14 23.944C183.735 23.5173 183.426 23.0053 183.212 22.408C182.999 21.8107 182.892 21.144 182.892 20.408V11.832H181.484C181.228 11.832 181.01 11.752 180.828 11.592C180.647 11.4213 180.556 11.176 180.556 10.856V8.92L183.196 8.408L184.172 4.36C184.3 3.848 184.663 3.592 185.26 3.592H187.852V8.44H191.884V11.832H187.852V20.072C187.852 20.456 187.943 20.776 188.124 21.032C188.316 21.2773 188.588 21.4 188.94 21.4C189.122 21.4 189.271 21.384 189.388 21.352C189.516 21.3093 189.623 21.2667 189.708 21.224C189.804 21.1707 189.89 21.128 189.964 21.096C190.05 21.0533 190.146 21.032 190.252 21.032C190.402 21.032 190.519 21.0693 190.604 21.144C190.7 21.208 190.796 21.3147 190.892 21.464L192.396 23.816C191.756 24.296 191.036 24.6587 190.236 24.904C189.436 25.1387 188.61 25.256 187.756 25.256Z" fill="#121111"/>
</svg>
